packages/kaspersky-hexa-ui-icons/src/iconsSVGs/24/StatusInfoSolid.svg

<svg xmlns="http://www.w3.org/2000/svg" width="24" height="24" fill="none" viewBox="0 0 24 24"><path fill="#000" fill-rule="evenodd" d="M12 22c5.5228 0 10-4.4772 10-10S17.5228 2 12 2 2 6.4772 2 12s4.4772 10 10 10m1-14c0-.5523-.4477-1-1-1s-1 .4477-1 1 .4477 1 1 1 1-.4477 1-1m-1 9c.5523 0 1-.4477 1-1v-5c0-.5523-.4477-1-1-1s-1 .4477-1 1v5c0 .5523.4477 1 1 1"/></svg>

<svg width="24" height="24" viewBox="0 0 24 24" fill="none" xmlns="http://www.w3.org/2000/svg">
<path fill-rule="evenodd" clip-rule="evenodd" d="M12 22C17.5228 22 22 17.5228 22 12C22 6.47715 17.5228 2 12 2C6.47715 2 2 6.47715 2 12C2 17.5228 6.47715 22 12 22ZM13 8C13 7.44772 12.5523 7 12 7C11.4477 7 11 7.44772 11 8C11 8.55228 11.4477 9 12 9C12.5523 9 13 8.55228 13 8ZM12 17C12.5523 17 13 16.5523 13 16V11C13 10.4477 12.5523 10 12 10C11.4477 10 11 10.4477 11 11V16C11 16.5523 11.4477 17 12 17Z" fill="black"/>
</svg>
